epam-assets/icon-sources/18/social-hot.svg

<svg width="18" height="18" viewBox="0 0 18 18" fill="none" xmlns="http://www.w3.org/2000/svg">
<g id="18/social-hot">
<path id="icon" fill-rule="evenodd" clip-rule="evenodd" d="M10.125 0.502441C10.125 0.502441 10.68 2.48994 10.68 4.10244C10.68 5.64744 9.6675 6.89994 8.1225 6.89994C6.57 6.89994 5.4 5.64744 5.4 4.10244L5.4225 3.83244C3.9075 5.63244 3 7.96494 3 10.4999C3 13.8149 5.685 16.4999 9 16.4999C12.315 16.4999 15 13.8149 15 10.4999C15 6.45744 13.0575 2.84994 10.125 0.502441ZM8.7825 14.2499C7.4475 14.2499 6.3675 13.1999 6.3675 11.8949C6.3675 10.6799 7.155 9.82494 8.475 9.55494C9.8025 9.28494 11.175 8.64744 11.94 7.61994C12.2325 8.58744 12.3825 9.60744 12.3825 10.6499C12.3825 12.6374 10.77 14.2499 8.7825 14.2499Z" fill="#6C6F80"/>
</g>
</svg>

<svg xmlns="http://www.w3.org/2000/svg" width="18" height="18" fill="none" viewBox="0 0 18 18">
  <path fill="#6C6F80" fill-rule="evenodd" d="M10.125.502s.555 1.988.555 3.6c0 1.545-1.012 2.798-2.557 2.798C6.57 6.9 5.4 5.647 5.4 4.102l.022-.27A10.326 10.326 0 0 0 3 10.5c0 3.315 2.685 6 6 6s6-2.685 6-6c0-4.043-1.943-7.65-4.875-9.998ZM8.783 14.25c-1.335 0-2.415-1.05-2.415-2.355 0-1.215.787-2.07 2.107-2.34 1.328-.27 2.7-.908 3.465-1.935.293.967.443 1.987.443 3.03a3.6 3.6 0 0 1-3.6 3.6Z" clip-rule="evenodd"/>
</svg>
